src/Assets/Icons/react-native.svg

<?xml version="1.0"?>
<svg xmlns="http://www.w3.org/2000/svg" height="512px" viewBox="0 0 64 64" width="512px" class=""><g><rect fill="#57a4ff" height="58" rx="4" width="36" x="5" y="3" data-original="#57A4FF" class="" style="fill:#57A4FF"/><path d="m5 26v31a4 4 0 0 0 4 4h27.4c-18.02-3.79-31.4-18.006-31.4-35z" fill="#2488ff" data-original="#2488FF" class=""/><path d="m14 9h18a2 2 0 0 0 2-2v-4h-22v4a2 2 0 0 0 2 2z" fill="#6d6e71" data-original="#6D6E71"/><circle cx="41" cy="32" fill="#ffcd00" r="18" data-original="#FFCD00" class="active-path" style="fill:#2488FF" data-old_color="#ffcd00"/><path d="m53 25a2 2 0 0 0 -2-2h-20a2 2 0 0 0 -2 2v2h24z" fill="#ff3051" data-original="#FF3051" class=""/><path d="m29 27v12a2 2 0 0 0 2 2h20a2 2 0 0 0 2-2v-12z" fill="#f1f2f2" data-original="#F1F2F2" class=""/><path d="m44 60h6v2h-6z" data-original="#000000" class="" style="fill:#000000"/><path d="m48 52h-2v2h-2v2h2v2h2v-2h2v-2h-2z" data-original="#000000" class="" style="fill:#000000"/><path d="m34 56h-22a1 1 0 0 0 0 2h22a1 1 0 0 0 0-2z" data-original="#000000" class="" style="fill:#000000"/><path d="m18 31h2v2h-2z" data-original="#000000" class="" style="fill:#000000"/><path d="m18.75 36.694h2v2h-2z" transform="matrix(.966 -.259 .259 .966 -9.083 6.396)" data-original="#000000" class="" style="fill:#000000"/><path d="m20.948 42h2v2h-2z" transform="matrix(.866 -.5 .5 .866 -18.56 16.736)" data-original="#000000" class="" style="fill:#000000"/><path d="m24.443 46.557h2v2h-2z" transform="matrix(.707 -.707 .707 .707 -26.175 31.92)" data-original="#000000" class="" style="fill:#000000"/><path d="m29 50.052h2v2h-2z" transform="matrix(.5 -.866 .866 .5 -29.213 51.512)" data-original="#000000" class="" style="fill:#000000"/><path d="m18.75 25.306h2v2h-2z" transform="matrix(.259 -.966 .966 .259 -10.772 38.574)" data-original="#000000" class="" style="fill:#000000"/><path d="m20.947 20h2v2h-2z" transform="matrix(.5 -.866 .866 .5 -7.213 29.506)" data-original="#000000" class="" style="fill:#000000"/><path d="m24.444 15.443h2v2h-2z" transform="matrix(.707 -.707 .707 .707 -4.175 22.808)" data-original="#000000" class="" style="fill:#000000"/><path d="m29 11.948h2v2h-2z" transform="matrix(.866 -.5 .5 .866 -2.454 16.736)" data-original="#000000" class="" style="fill:#000000"/><path d="m51 12a1 1 0 0 1 1 1 1 1 0 0 0 2 0 3 3 0 0 0 -3-3 1 1 0 0 0 0 2z" data-original="#000000" class="" style="fill:#000000"/><path d="m51 2a1 1 0 0 0 0 2 9.011 9.011 0 0 1 9 9 1 1 0 0 0 2 0 11.013 11.013 0 0 0 -11-11z" data-original="#000000" class="" style="fill:#000000"/><path d="m51 8a5.006 5.006 0 0 1 5 5 1 1 0 0 0 2 0 7.008 7.008 0 0 0 -7-7 1 1 0 0 0 0 2z" data-original="#000000" class="" style="fill:#000000"/><path d="m31 22a3 3 0 0 0 -3 3v14a3 3 0 0 0 3 3h20a3 3 0 0 0 3-3v-14a3 3 0 0 0 -3-3zm21 17a1 1 0 0 1 -1 1h-20a1 1 0 0 1 -1-1v-11h22zm0-14v1h-22v-1a1 1 0 0 1 1-1h20a1 1 0 0 1 1 1z" data-original="#000000" class="" style="fill:#000000"/><path d="m36.4 37.8a1 1 0 1 0 1.2-1.6l-2.933-2.2 2.933-2.2a1 1 0 1 0 -1.2-1.6l-4 3a1 1 0 0 0 0 1.6z" data-original="#000000" class="" style="fill:#000000"/><path d="m44.2 37.6a1 1 0 0 0 1.4.2l4-3a1 1 0 0 0 0-1.6l-4-3a1 1 0 0 0 -1.2 1.6l2.933 2.2-2.933 2.2a1 1 0 0 0 -.2 1.4z" data-original="#000000" class="" style="fill:#000000"/><path d="m39.757 38.97a.976.976 0 0 0 .243.03 1 1 0 0 0 .969-.757l2-8a1 1 0 0 0 -1.94-.486l-2 8a1 1 0 0 0 .728 1.213z" data-original="#000000" class="" style="fill:#000000"/><path d="m42 13.051v-6.051a5.006 5.006 0 0 0 -5-5h-28a5.006 5.006 0 0 0 -5 5v50a5.006 5.006 0 0 0 5 5h28a5.006 5.006 0 0 0 5-5v-6.051a18.974 18.974 0 0 0 0-37.9zm-29-9.051h20v3a1 1 0 0 1 -1 1h-18a1 1 0 0 1 -1-1zm24 56h-28a3 3 0 0 1 -3-3v-50a3 3 0 0 1 3-3h2v3a3 3 0 0 0 3 3h18a3 3 0 0 0 3-3v-3h2a3 3 0 0 1 3 3v6.051a18.974 18.974 0 0 0 0 37.9v6.049a3 3 0 0 1 -3 3zm4-11a17 17 0 1 1 17-17 17.019 17.019 0 0 1 -17 17z" data-original="#000000" class="" style="fill:#000000"/></g> </svg>

<?xml version="1.0" encoding="UTF-8" standalone="no"?>
<svg
   xmlns:dc="http://purl.org/dc/elements/1.1/"
   xmlns:cc="http://creativecommons.org/ns#"
   xmlns:rdf="http://www.w3.org/1999/02/22-rdf-syntax-ns#"
   xmlns:svg="http://www.w3.org/2000/svg"
   xmlns="http://www.w3.org/2000/svg"
   xmlns:sodipodi="http://sodipodi.sourceforge.net/DTD/sodipodi-0.dtd"
   xmlns:inkscape="http://www.inkscape.org/namespaces/inkscape"
   height="50"
   viewBox="0 0 6.25 6.25"
   width="50"
   class=""
   version="1.1"
   id="svg56"
   sodipodi:docname="react-native.svg"
   inkscape:version="0.92.4 (5da689c313, 2019-01-14)">
  <metadata
     id="metadata62">
    <rdf:RDF>
      <cc:Work
         rdf:about="">
        <dc:format>image/svg+xml</dc:format>
        <dc:type
           rdf:resource="http://purl.org/dc/dcmitype/StillImage" />
        <dc:title></dc:title>
      </cc:Work>
    </rdf:RDF>
  </metadata>
  <defs
     id="defs60" />
  <sodipodi:namedview
     pagecolor="#ffffff"
     bordercolor="#666666"
     borderopacity="1"
     objecttolerance="10"
     gridtolerance="10"
     guidetolerance="10"
     inkscape:pageopacity="0"
     inkscape:pageshadow="2"
     inkscape:window-width="1920"
     inkscape:window-height="1017"
     id="namedview58"
     showgrid="false"
     inkscape:zoom="3.6875"
     inkscape:cx="48.063062"
     inkscape:cy="-32.252246"
     inkscape:window-x="-8"
     inkscape:window-y="-8"
     inkscape:window-maximized="1"
     inkscape:current-layer="svg56" />
  <g
     id="g54"
     transform="matrix(0.0960452,0,0,0.0960452,0.19209038,0.05790957)">
    <rect
       height="58"
       rx="4"
       width="36"
       x="5"
       y="3"
       data-original="#57A4FF"
       class=""
       style="fill:#57a4ff"
       id="rect2" />
    <path
       d="m 5,26 v 31 a 4,4 0 0 0 4,4 H 36.4 C 18.38,57.21 5,42.994 5,26 Z"
       data-original="#2488FF"
       class=""
       id="path4"
       inkscape:connector-curvature="0"
       style="fill:#2488ff" />
    <path
       d="M 14,9 H 32 A 2,2 0 0 0 34,7 V 3 H 12 v 4 a 2,2 0 0 0 2,2 z"
       data-original="#6D6E71"
       id="path6"
       inkscape:connector-curvature="0"
       style="fill:#6d6e71" />
    <circle
       cx="41"
       cy="32"
       r="18"
       data-original="#FFCD00"
       class="active-path"
       style="fill:#2488ff"
       data-old_color="#ffcd00"
       id="circle8" />
    <path
       d="M 53,25 A 2,2 0 0 0 51,23 H 31 a 2,2 0 0 0 -2,2 v 2 h 24 z"
       data-original="#FF3051"
       class=""
       id="path10"
       inkscape:connector-curvature="0"
       style="fill:#ff3051" />
    <path
       d="m 29,27 v 12 a 2,2 0 0 0 2,2 h 20 a 2,2 0 0 0 2,-2 V 27 Z"
       data-original="#F1F2F2"
       class=""
       id="path12"
       inkscape:connector-curvature="0"
       style="fill:#f1f2f2" />
    <path
       d="m 44,60 h 6 v 2 h -6 z"
       data-original="#000000"
       class=""
       style="fill:#000000"
       id="path14"
       inkscape:connector-curvature="0" />
    <path
       d="m 48,52 h -2 v 2 h -2 v 2 h 2 v 2 h 2 v -2 h 2 v -2 h -2 z"
       data-original="#000000"
       class=""
       style="fill:#000000"
       id="path16"
       inkscape:connector-curvature="0" />
    <path
       d="M 34,56 H 12 a 1,1 0 0 0 0,2 h 22 a 1,1 0 0 0 0,-2 z"
       data-original="#000000"
       class=""
       style="fill:#000000"
       id="path18"
       inkscape:connector-curvature="0" />
    <path
       d="m 18,31 h 2 v 2 h -2 z"
       data-original="#000000"
       class=""
       style="fill:#000000"
       id="path20"
       inkscape:connector-curvature="0" />
    <path
       d="m 18.75,36.694 h 2 v 2 h -2 z"
       transform="matrix(0.966,-0.259,0.259,0.966,-9.083,6.396)"
       data-original="#000000"
       class=""
       style="fill:#000000"
       id="path22"
       inkscape:connector-curvature="0" />
    <path
       d="m 20.948,42 h 2 v 2 h -2 z"
       transform="matrix(0.866,-0.5,0.5,0.866,-18.56,16.736)"
       data-original="#000000"
       class=""
       style="fill:#000000"
       id="path24"
       inkscape:connector-curvature="0" />
    <path
       d="m 24.443,46.557 h 2 v 2 h -2 z"
       transform="matrix(0.707,-0.707,0.707,0.707,-26.175,31.92)"
       data-original="#000000"
       class=""
       style="fill:#000000"
       id="path26"
       inkscape:connector-curvature="0" />
    <path
       d="m 29,50.052 h 2 v 2 h -2 z"
       transform="matrix(0.5,-0.866,0.866,0.5,-29.213,51.512)"
       data-original="#000000"
       class=""
       style="fill:#000000"
       id="path28"
       inkscape:connector-curvature="0" />
    <path
       d="m 18.75,25.306 h 2 v 2 h -2 z"
       transform="matrix(0.259,-0.966,0.966,0.259,-10.772,38.574)"
       data-original="#000000"
       class=""
       style="fill:#000000"
       id="path30"
       inkscape:connector-curvature="0" />
    <path
       d="m 20.947,20 h 2 v 2 h -2 z"
       transform="matrix(0.5,-0.866,0.866,0.5,-7.213,29.506)"
       data-original="#000000"
       class=""
       style="fill:#000000"
       id="path32"
       inkscape:connector-curvature="0" />
    <path
       d="m 24.444,15.443 h 2 v 2 h -2 z"
       transform="matrix(0.707,-0.707,0.707,0.707,-4.175,22.808)"
       data-original="#000000"
       class=""
       style="fill:#000000"
       id="path34"
       inkscape:connector-curvature="0" />
    <path
       d="m 29,11.948 h 2 v 2 h -2 z"
       transform="matrix(0.866,-0.5,0.5,0.866,-2.454,16.736)"
       data-original="#000000"
       class=""
       style="fill:#000000"
       id="path36"
       inkscape:connector-curvature="0" />
    <path
       d="m 51,12 a 1,1 0 0 1 1,1 1,1 0 0 0 2,0 3,3 0 0 0 -3,-3 1,1 0 0 0 0,2 z"
       data-original="#000000"
       class=""
       style="fill:#000000"
       id="path38"
       inkscape:connector-curvature="0" />
    <path
       d="m 51,2 a 1,1 0 0 0 0,2 9.011,9.011 0 0 1 9,9 1,1 0 0 0 2,0 A 11.013,11.013 0 0 0 51,2 Z"
       data-original="#000000"
       class=""
       style="fill:#000000"
       id="path40"
       inkscape:connector-curvature="0" />
    <path
       d="m 51,8 a 5.006,5.006 0 0 1 5,5 1,1 0 0 0 2,0 7.008,7.008 0 0 0 -7,-7 1,1 0 0 0 0,2 z"
       data-original="#000000"
       class=""
       style="fill:#000000"
       id="path42"
       inkscape:connector-curvature="0" />
    <path
       d="m 31,22 a 3,3 0 0 0 -3,3 v 14 a 3,3 0 0 0 3,3 h 20 a 3,3 0 0 0 3,-3 V 25 a 3,3 0 0 0 -3,-3 z m 21,17 a 1,1 0 0 1 -1,1 H 31 A 1,1 0 0 1 30,39 V 28 h 22 z m 0,-14 v 1 H 30 v -1 a 1,1 0 0 1 1,-1 h 20 a 1,1 0 0 1 1,1 z"
       data-original="#000000"
       class=""
       style="fill:#000000"
       id="path44"
       inkscape:connector-curvature="0" />
    <path
       d="m 36.4,37.8 a 1,1 0 1 0 1.2,-1.6 L 34.667,34 37.6,31.8 a 1,1 0 1 0 -1.2,-1.6 l -4,3 a 1,1 0 0 0 0,1.6 z"
       data-original="#000000"
       class=""
       style="fill:#000000"
       id="path46"
       inkscape:connector-curvature="0" />
    <path
       d="m 44.2,37.6 a 1,1 0 0 0 1.4,0.2 l 4,-3 a 1,1 0 0 0 0,-1.6 l -4,-3 a 1,1 0 0 0 -1.2,1.6 L 47.333,34 44.4,36.2 a 1,1 0 0 0 -0.2,1.4 z"
       data-original="#000000"
       class=""
       style="fill:#000000"
       id="path48"
       inkscape:connector-curvature="0" />
    <path
       d="M 39.757,38.97 A 0.976,0.976 0 0 0 40,39 1,1 0 0 0 40.969,38.243 l 2,-8 a 1,1 0 0 0 -1.94,-0.486 l -2,8 a 1,1 0 0 0 0.728,1.213 z"
       data-original="#000000"
       class=""
       style="fill:#000000"
       id="path50"
       inkscape:connector-curvature="0" />
    <path
       d="M 42,13.051 V 7 A 5.006,5.006 0 0 0 37,2 H 9 A 5.006,5.006 0 0 0 4,7 v 50 a 5.006,5.006 0 0 0 5,5 h 28 a 5.006,5.006 0 0 0 5,-5 v -6.051 a 18.974,18.974 0 0 0 0,-37.9 z M 13,4 H 33 V 7 A 1,1 0 0 1 32,8 H 14 A 1,1 0 0 1 13,7 Z M 37,60 H 9 A 3,3 0 0 1 6,57 V 7 A 3,3 0 0 1 9,4 h 2 v 3 a 3,3 0 0 0 3,3 H 32 A 3,3 0 0 0 35,7 V 4 h 2 a 3,3 0 0 1 3,3 v 6.051 a 18.974,18.974 0 0 0 0,37.9 V 57 a 3,3 0 0 1 -3,3 z M 41,49 A 17,17 0 1 1 58,32 17.019,17.019 0 0 1 41,49 Z"
       data-original="#000000"
       class=""
       style="fill:#000000"
       id="path52"
       inkscape:connector-curvature="0" />
  </g>
</svg>
